**kern	**kern	**dynam
*part1	*part1	*part1
*staff2	*staff1	*
*I"Piano	*	*
*clefF4	*clefG2	*
*k[b-e-]	*k[b-e-]	*
=1	=1	=1
*^	*	*
!	!	!LO:TX:a:i:t=ritard.	!
8d	2ryy	8b-	.
4B-	.	4f	.
8F)	.	8d)	.
4F	2BB-	4d 4f	p
8.FL	.	8.dL 8.f	.
16FJk	.	16dJk 16f	.
*v	*v	*	*
=	=	=
4BB-^ 4F	(4d 4dd	.
8.BB-L 8.F	4d) 4f	.
16FJk	.	.
(4BB- 4B-	4d 4f	.
4F)	8.dL 8.f	.
.	16dJk 16f	.
=	=	=
4BB- 4F	(4d 4dd	.
8.FL	4d) 4b-	.
16FJk	.	.
!	!LO:TX:b:i:t=dim.	!
4BB-	4d^ 4dd	.
8.BB-L	8dL 8cc	.
.	8dJ 8b-	.
16BB-Jk	.	.
=	=	=
*^	*^	*
4F	2BB-	(8e-L 8dd	2ryy	.
.	.	8cc	.	.
8.FL	.	8a	.	.
.	.	8fJ)	.	.
16FJk	.	.	.	.
2F	4BB-	4b-	4d	.
.	8.BB-L	8aL	4d-X 4en	.
.	.	8gJ	.	.
.	16BB-Jk	.	.	.
=	=	=	=	=
4F	4BB-	8b-L	2c 2e-X	.
.	.	8a	.	.
8.FL	4ryy	8g	.	.
.	.	8fJ	.	.
16FJk	.	.	.	.
(4F	2BB-	2b-	(4dn	.
8.E-L	.	.	8.cL	pp
16DJk)	.	.	16B-Jk)	.
*	*	*v	*v	*
=	=	=	=
(4B- 4d	2BB-	1r	.
8.FL 8.c	.	.	.
16DJk) 16B-	.	.	.
(4D 4B-	(4BB-	.	.
8.CL	8.FFL	.	.
16BB-Jk)	16DDJk)	.	.
=	=	=	=
4BB-;	4DD;	4ryy	.
4rFyy	4rA	4r	.
2rFyy	2rA	2r	.
*v	*v	*	*
==	==	==
*-	*-	*-
!!!system-decoration: {(s1,s2)}
